X:1
T:Drink To The Laddies
M:3/4
L:1/4
K:Eb
 c e3/2 d/2| c G G| c e d| c3| B d3/2 c/2| B F F| B d c| B3| c e3/2 f/2|\
 g e f| g e c| =B3| g2 f| e c3/2 c/2| B G F| G c d| c3|
